X:1
T:Bugle Call
T:Charles E. Hauck, 1905
T:Bugle Call
T:Public Domain
C:Charles E. Hauck, 1905
Z:Public Domain
%%score ( 1 2 ) ( 3 4 )
L:1/8
M:4/4
K:Ab
V:1 treble 
V:2 treble 
V:3 bass 
V:4 bass 
V:1
 E>[DE] | [CA]>[CE] [CA]>[Ec] [CA]2 [CA]>[CA] | [Ec]>[CA] [Ec]>[Ee] [Ac]2 [EA]>[Ec] | %3
w: 1.~Heark- en|the bu- gle call, Let us ral-|ly one and all In the ranks|
w: 2.~Ev- ery|day of the year We will all|as- sem- ble here In the ranks|
w: 3.~We will|ny more in- vite For the cause|of truth and right In the ranks|
w: 4.~Here to-|ther we’ll be taught From the pre-|cious word of God In the ranks|
 [Ae]2 [Ec]>[CA] [B,E]2 [DE]>[DE] | [CA]6 |] %5
w: of our own Sun- day School.||
w: of our own Sun- day School.||
w: of our own Sun- day School.||
w: of our own Sun- day School.||
V:2
 E3/2 x/ | x8 | x8 | x8 | x6 |] %5
w: to|||||
w: Sun-|||||
w: ma-|||||
w: ge-|||||
V:3
 E,>E, | [A,,E,]>[A,,E,] [A,,E,]>[A,,A,] [A,,E,]2 [A,,E,]>[A,,E,] | %2
 A,>A, A,>[A,C] [A,E]2 [A,C]>A, | [A,C]2 [A,,A,]>[C,A,] [E,A,]2 [E,G,]>[E,B,] | [A,,A,]6 |] %5
V:4
 E,>E, | x8 | A,>A, A,3/2 x5/2 A,/ x3/2 | x8 | x6 |] %5

